X:67
T:Lo Bouoli, Lo Morianno
R:Bourre
M:3/8
L:1/8
N:La Bourre 4th edition 1929, page 69
Z:Steve Mansfield www.lesession.co.uk May 2012
K:F
!f! c |: c/ B/ A B | c d c | c/ B/ A G |
[1 F2 c :|2 F2 F/ G/ | A2 A | A G F | G G2 |
G2 A/ B/ | c2 d | d c B | A G2 | F3 |]
<end>
<start>
